X: 1581
T: Jack's Waltz
B: australian traditional tunes wiki
B: kameruka bush dance
B: to learn
M:3/4
L:1/4
R: Waltz
Q: 1/4=100
K:D
V:1 
|:"D"F3|ABA|"G"G3|"A7"E2F|G2A|BcB|"D"A3|F2A|
|1 d3|"A7"cdc|"G"B3|"D"A3|F3|FED|"A7"EcB|AGE:|
|2 d3|"A7"cdc|"G"B3|"D"A3|F3|"A7"E3|"D"D3-|D3||
"D"fdz/2B/2|A3|fdz/2B/2|A3|"A7"cB/2c/2B/2c/2|G3|cBA|"D"F3|
fdz/2B/2|A3|fdz/2B/2|A3|"A7"cB/2c/2B/2c/2|G2E|"D"D3-|D3||
"D"F3/2E/2F|DEF|"G"G3/2F/2G|"A7"E3|G3/2E/2F|EFG|"D"A3/2B/2A|F3|
A3/2B/2A|FGA|"G"B3/2c/2B|"A7"E2D|CcB|AGE|"D"D3-|D3||
% abcbook-tune_id 6342d53afb271dcd50aa5b36
% abcbook-link-0 https://www.youtube.com/watch?v=kCpWqagEpHU
% abcbook-link-title-0 Jacks Waltz

% abcbook-boost 0
% abcbook-tablature 
% abcbook-transpose 5
% abcbook-lastupdated 1666788886020
% abcbook-soundfonts 
% abcbook-repeats 3
%%MIDI transpose             5
% NFF Book 2006

